proprietary/assets/icons/gebouwonderdelen/louvreluiken.svg

<svg enable-background="new 0 0 64 64" height="64" viewBox="0 0 64 64" width="64" xmlns="http://www.w3.org/2000/svg"><path d="m0 0h64v64h-64z" fill="none"/><path d="m59 9h-14c-4-2.4-8.5-3.7-13-3.7s-9 1.3-13 3.7h-14c-.6 0-1 .4-1 1v43c0 .6.4 1 1 1h14v1c0 .6.4 1 1 1h24c.6 0 1-.4 1-1 0-.3 0-.7 0-1h14c.6 0 1-.4 1-1v-43c0-.6-.4-1-1-1zm-42 41h-10l1-2h10zm0-5h-10l1-2h10zm0-5h-10l1-2h10zm0-5h-10l1-2h10zm0-5h-10l1-2h10zm0-5h-10l1-2h10zm0-5h-10l1-2h10zm0-5h-10l1-2h10zm15-5.7c3.1 0 6.2.7 9 2v7.7h-18v-7.6c2.8-1.4 5.9-2.1 9-2.1zm-9 42.7v-29h18v29zm24-2-1-2h10l1 2zm0-5-1-2h10l1 2zm0-5-1-2h10l1 2zm0-5-1-2h10l1 2zm0-5-1-2h10l1 2zm0-5-1-2h10l1 2zm0-5-1-2h10l1 2zm0-5-1-2h10l1 2z"/></svg>

<?xml version="1.0" encoding="utf-8"?>
<!-- Generator: Adobe Illustrator 21.0.2, SVG Export Plug-In . SVG Version: 6.00 Build 0)  -->
<!DOCTYPE svg PUBLIC "-//W3C//DTD SVG 1.1//EN" "http://www.w3.org/Graphics/SVG/1.1/DTD/svg11.dtd">
<svg version="1.1" xmlns="http://www.w3.org/2000/svg" xmlns:xlink="http://www.w3.org/1999/xlink" x="0px" y="0px" width="64px"
	 height="64px" viewBox="0 0 64 64" style="enable-background:new 0 0 64 64;" xml:space="preserve">
<style type="text/css">
	.st0{fill:none;}
	.st1{fill:#FFFFFF;}
</style>
<g id="_x36_4px_Box">
	<rect class="st0" width="64" height="64"/>
</g>
<g id="Icon">
	<g>
		<path d="M59,9H45c-4-2.4-8.5-3.7-13-3.7S23,6.6,19,9H5c-0.6,0-1,0.4-1,1v43c0,0.6,0.4,1,1,1h14c0,0.3,0,0.7,0,1c0,0.6,0.4,1,1,1
			c8,0,16,0,24,0c0.6,0,1-0.4,1-1c0-0.3,0-0.7,0-1h14c0.6,0,1-0.4,1-1V10C60,9.4,59.6,9,59,9z M17,50H7l1-2h10L17,50z M17,45H7l1-2
			h10L17,45z M17,40H7l1-2h10L17,40z M17,35H7l1-2h10L17,35z M17,30H7l1-2h10L17,30z M17,25H7l1-2h10L17,25z M17,20H7l1-2h10L17,20z
			 M17,15H7l1-2h10L17,15z M32,9.3c3.1,0,6.2,0.7,9,2V19H23v-7.6C25.8,10,28.9,9.3,32,9.3z M23,52V23h18v29H23z M47,50l-1-2h10l1,2
			H47z M47,45l-1-2h10l1,2H47z M47,40l-1-2h10l1,2H47z M47,35l-1-2h10l1,2H47z M47,30l-1-2h10l1,2H47z M47,25l-1-2h10l1,2H47z
			 M47,20l-1-2h10l1,2H47z M47,15l-1-2h10l1,2H47z"/>
	</g>
</g>
</svg>
